open-wallet-images/icons/messaging.svg

<svg xmlns="http://www.w3.org/2000/svg" width="18" height="18" viewBox="0 0 18 18">
  <path fill="#fff" d="M17.1,3.6 L15.3,3.6 L15.3,11.7 L3.6,11.7 L3.6,13.5 C3.6,13.995 4.005,14.4 4.5,14.4 L14.4,14.4 L18,18 L18,4.5 C18,4.005 17.595,3.6 17.1,3.6 L17.1,3.6 Z M13.5,9 L13.5,0.9 C13.5,0.405 13.095,0 12.6,0 L0.9,0 C0.405,0 0,0.405 0,0.9 L0,13.5 L3.6,9.9 L12.6,9.9 C13.095,9.9 13.5,9.495 13.5,9 L13.5,9 Z"/>
</svg>

<?xml version="1.0" encoding="utf-8"?>
<!-- Generator: Adobe Illustrator 22.1.0, SVG Export Plug-In . SVG Version: 6.00 Build 0)  -->
<svg version="1.1" id="Calque_1" xmlns="http://www.w3.org/2000/svg" xmlns:xlink="http://www.w3.org/1999/xlink" x="0px" y="0px"
	 viewBox="0 0 18 18" style="enable-background:new 0 0 18 18;" xml:space="preserve">
<style type="text/css">
	.st0{fill:#B5C0D7;}
</style>
<path class="st0" d="M17.1,3.6h-1.8v8.1H3.6v1.8c0,0.5,0.4,0.9,0.9,0.9h9.9L18,18V4.5C18,4,17.6,3.6,17.1,3.6L17.1,3.6z M13.5,9V0.9
	c0-0.5-0.4-0.9-0.9-0.9H0.9C0.4,0,0,0.4,0,0.9v12.6l3.6-3.6h9C13.1,9.9,13.5,9.5,13.5,9L13.5,9z"/>
</svg>
